X:43
T:The Happy One-Step
M:4/4
L:1/4
K:Bmajor
B/2d/2|"B"f/2B/2d/2f/2-f/2B/2d/2f/2|"E"b/2e/2g/2b/2-b/2c'/2b/2g/2|"B"f/2B/2d/2f/2-f/2B/2c/2d/2|"F"c/2B/2B/2G/2F/2F/2B/2d/2|"B"f/2B/2d/2f/2-f/2B/2d/2f/2|"E"b/2e/2g/2b/2-b/2c'/2b/2g/2|"B"f/2d/2c/2B/2"E"c/2B/2G/2F/2|"E"G/2B/2B/2B/2-"B"B|b/2c'/2|"B"d'/2f/2d'/2d'/2-d'/2f/2d'|"F"c'/2f/2c'/2c'/2-c'/2f/2c'|"Gm"d'/2f/2d'/2d'/2-d'/2f/2d'|"E"e'/2g/2e'/2e'/2-e'/2g/2e'|"B"d'/2f/2d'/2d'/2-d'/2f/2b/2d'/2|"F"c'/2f/2c'/2c'/2-c'/2f/2c'|"Gm"d'/2f/2d'/2d'/2-d'/2f/2d'|e'/2f/2d'/2f/2c'/2f/2|]

